assets/Fountain pen/Flat/fountain_pen_flat.svg

<svg width="32" height="32" viewBox="0 0 32 32" fill="none" xmlns="http://www.w3.org/2000/svg">
<path d="M24.4853 3.27211C25.6569 2.10054 27.5564 2.10054 28.7279 3.27211C29.8995 4.44368 29.8995 6.34318 28.7279 7.51475L10.6967 25.546C10.5323 25.7104 10.2818 25.7364 10.0903 25.6239C10.018 25.5815 9.94749 25.5336 9.86715 25.51L7.1556 24.7138L6.48825 22.1422C6.46587 22.0559 6.4157 21.98 6.37191 21.9024C6.26436 21.7118 6.29174 21.4657 6.45406 21.3033L24.4853 3.27211Z" fill="#0074BA"/>
<path d="M23.4265 3.62749C23.817 3.23696 24.4501 3.23696 24.8407 3.62749L29.435 8.22185C29.8256 8.61237 29.8256 9.24554 29.435 9.63606L24.4853 14.5858C24.0948 14.9763 23.4616 14.9763 23.0711 14.5858C22.6805 14.1953 22.6805 13.5621 23.0711 13.1716L27.3137 8.92896L23.4265 5.0417C23.0359 4.65118 23.0359 4.01801 23.4265 3.62749Z" fill="#D3D3D3"/>
<path d="M13.8805 13.1734C14.0758 12.9781 14.3924 12.9781 14.5876 13.1734L18.8303 17.416C19.0255 17.6113 19.0255 17.9279 18.8303 18.1231L18.1232 18.8302C17.9279 19.0255 17.6113 19.0255 17.4161 18.8302L13.1734 14.5876C12.9782 14.3923 12.9782 14.0757 13.1734 13.8805L13.8805 13.1734Z" fill="#D3D3D3"/>
<path d="M6.45405 22.0104L9.98958 25.5459L7.98546 27.55C7.6754 27.8601 7.30113 28.0984 6.88902 28.2482L2.80229 29.7337C2.65021 29.789 2.47987 29.7512 2.36544 29.6368C2.25108 29.5224 2.21325 29.3522 2.26841 29.2002L3.75179 25.1119C3.90156 24.6992 4.1401 24.3243 4.45057 24.0139L6.45405 22.0104Z" fill="#D3D3D3"/>
<path d="M6.8076 26.6065C6.41708 26.997 5.78391 26.997 5.39339 26.6065C5.00286 26.216 5.00286 25.5828 5.39339 25.1923C5.78391 24.8018 6.41708 24.8018 6.8076 25.1923C7.19813 25.5828 7.19813 26.216 6.8076 26.6065Z" fill="#636363"/>
</svg>

<svg xmlns="http://www.w3.org/2000/svg" width="32" height="32" fill="none"><path fill="#0074BA" d="M24.485 3.272a3 3 0 1 1 4.243 4.243L10.697 25.546a.5.5 0 0 1-.607.078c-.072-.043-.143-.09-.223-.114l-2.711-.796-.668-2.572c-.022-.086-.072-.162-.116-.24a.5.5 0 0 1 .082-.599l18.031-18.03Z"/><path fill="#D3D3D3" d="M23.427 3.627a1 1 0 0 1 1.414 0l4.594 4.595a1 1 0 0 1 0 1.414l-4.95 4.95a1 1 0 0 1-1.414-1.414l4.243-4.243-3.887-3.887a1 1 0 0 1 0-1.415ZM13.88 13.173a.5.5 0 0 1 .708 0l4.242 4.243a.5.5 0 0 1 0 .707l-.707.707a.5.5 0 0 1-.707 0l-4.243-4.242a.5.5 0 0 1 0-.707l.707-.708ZM6.454 22.01l3.536 3.536-2.005 2.004a3 3 0 0 1-1.096.698l-4.087 1.486a.417.417 0 0 1-.534-.534l1.484-4.088a3 3 0 0 1 .699-1.098l2.003-2.004Z"/><path fill="#636363" d="M6.808 26.607a1 1 0 1 1-1.415-1.415 1 1 0 0 1 1.415 1.415Z"/></svg>
